X:1
T:Morgen im Wald
T:Friedrich Hegar
T:Fr. Rohrer
T:Morgen im Wald
T:Op. 4
T:CPDL   —   Creative Commons Attribution Non Commercial 3.0
T:CPDL   —   Creative Commons Attribution Non Commercial 3.0
T:CPDL   —   Creative Commons Attribution Non Commercial 3.0
T:CPDL   —   Creative Commons Attribution Non Commercial 3.0
T:CPDL   —   Creative Commons Attribution Non Commercial 3.0
T:CPDL   —   Creative Commons Attribution Non Commercial 3.0
C:Friedrich Hegar
Z:Fr. Rohrer
Z:CPDL   —   Creative Commons Attribution Non Commercial 3.0
%%score [ ( 1 2 ) ( 3 4 ) ]
L:1/8
Q:1/4=90
M:4/4
K:G
V:1 treble-8 nm="Tenor"
V:2 treble-8 
V:3 bass nm="Bass"
V:4 bass 
V:1
!f!"^Frisch, aber nicht sehr rasch" G<B c/ | d2- d>d d>d e>B | d4- d z |!p! d2 | d>d d>d ^c>c d>e | %5
w: Die Am- sel|schlug _ im Wald, im fri- schen|Wald. _|Tau-|per- len hin- gen träu- mend an den|
 d4 f z |!<(! f2!<)! | f2- f>!>(!^c!>)! c2 c2 | ^c2 c2 c2 c2 | ^c8- | c4 ^c2 c2 | %11
w: Zwei- gen.|Im|Mor- * gen- weh'n die|Wip- fel stumm sich|nei-|* gen, im|
!<(! f2-!<)! f>!>(!^c!>)! c2!p! c2 |!>(! d2 d2!>)! e2[Q:1/4=88]"^rit." e2 | (a6 f2) | %14
w: Mor- * gen- weh'n die|Wip- fel stumm sich|nei- *|
 !fermata!d4 z3/2!f![Q:1/4=90]"^a tempo" G/ B>c | d2- d>d d>d e>B | d4- d z d2 | %17
w: gen, ein ein- zig|Lied _ die Däm- me- rung durch-|hallt, _ ein|
!<(! e2 f2 g2!<)! [fa]2 |!ff! [gb]4- [gb] !fermata!z!pp! d2 | d8- | !fermata!d4 !fermata!z2!p! B2 | %21
w: ein- zig Lied er-|schallt _ im|Wald.|_ Der|
 B3 B B2 B2 | B3 B c2 G2 | B8 | B6 z2 | B4 B3 B |!<(! B2 B2 c2!<)! c2 | d6!>(! B2 | %28
w: Lie- be En- gel|wallt mit lei- sen|Schwin-|gen,|still durch ge-|heim- nis- vol- len|Wal- des-|
 A4-!>)! A z!p! B2 | B4- B2 B2 |!<(! B3 B ^c2!<)! c2 | d3 A A2 d2 |!<(! f6!<)! e2 | d4 ^c4 | %34
w: duft. _ Die|Blü- * ten|schau- ern kühl im|Mor- gen- duft, sie|schau- ern|kühl im|
[Q:1/4=88]"^rit." [^ce]6!>(! d2 | d6!>)! | z3/2!f![Q:1/4=90]"^Etwas belebter,  a tempo" d/ | %37
w: Mor- gen-|duft.|Wach|
 d3 d d2 d2 | !>!e7/2 e/ e2 d2 | d2 d2 d2 d2 | !>!g4 f2 d2 | d3 d d2 d2 | !>!f3 e d2 d2 | %43
w: auf, wach auf, du|Son- nen- glanz, du|hel- les, hel- les|Klin- gen. Wach|auf, wach auf, du|Son- nen- glanz, du|
!<(! d2[Q:1/4=88]"^rit." d2 d2 d2!<)! |!ff! (a6 f2) | %45
w: hel- les, hel- les|Klin- *|
 d4- !fermata!d z/!f![Q:1/4=90]"^a tempo" G/ B>c | d7/2 d/ d>d e>B | d4- d z!p! d2 | %48
w: gen. _ Im fri- schen|Wald ein ju- belnd Lied er-|schallt. _ Es|
 d>d d>d ^c>c d>e |!<(! d4!<)! f z!f! f2 | g3 d d2 d2 | d6 d2 | d6 d2 | d6 d2 | !>!g3 d d2 d2 | %55
w: sang ein Herz im gold'- nen Blü- ten-|mai- en der|Lie- be Lied, es|sang ein|Herz, es|sang der|Lie- be Lied, es|
!<(! d2!<)! e2 g2 =f2 | =f3 e e2 e2 | !>!g3 e e2 e2 | !>!g3 d d2 d2 | %59
w: sang ein Herz der|Lie- be Lied, es|sang ein Herz der|Lie- be Lied, der|
[Q:1/4=88]"^rit." !>!g3 ^c c2 ea | !fermata!a4 !fermata!z3/2[Q:1/4=90]"^a tempo"!f! d/ d>d | %61
w: Lie- be Lied im _|Wald. Es schlug ein|
 d3 d d>d e>B | d4- d z d2 |!<(! e2 f2 g2!<)! [fa]2 | [gb]4- [gb] !fermata!z!pp! d2 | d8- | %66
w: Herz im Wald, im fri- schen|Wald, _ im|Wald, im fri- schen|Wald, _ _|Wald,|
 d6!pp! B2 |[Q:1/4=88]"^rit." B3 B B2 B2 | !fermata!B4 !fermata!z3/2 |] %69
w: _ im|Wald, im fri- schen|Wald!|
V:2
 G<B c/ | d2- d>d d>d e>B | d4- d x | B2 | B>B B>B B>B B>B | B4 B x | B2 | ^A2- A>A A2 A2 | %8
w: ||||||||
 ^G2 ^A2 B2 G2 | (^A8 | ^G4) B2 B2 | ^c2- c>^A A2 A2 | B2 B2 =c2 c2 | (f6 c2) | c4 x3/2 G/ B>c | %15
w: |||||||
 d2- d>d d>d e>B | d4- d x B2 | B2 d2 e2 d2 | d4- d x d2 | (d4 c2) A2 | B4 x2 B2 | B3 B B2 A2 | %22
w: |||* * im|Wald, _ im|Wald. *||
 G3 G G2 G2 | (G4 A2 F2) | G6 x2 | B4 A3 A | G2 G2 G2 G2 | B6 G2 | F4- F x B2 | B4- B2 A2 | %30
w: ||||||||
 G3 G G2 G2 | A3 F F2 A2 | B6 B2 | A4 A4 | A6 A2 | A6 | x3/2 d/ | d3 d d2 d2 | d7/2 d/ d2 d2 | %39
w: |||||||||
 d2 d2 d2 d2 | d4 d2 d2 | d3 d d2 d2 | d3 c c2 d2 | d2 d2 d2 d2 | (f6 d2) | c4- c x/ G/ B>c | %46
w: |||||||
 d7/2 d/ d>d e>B | d4- d x B2 | B>B B>B B>B B>B | B4 d x d2 | d3 B B2 B2 | A2 B2 c2 A2 | B6 B2 | %53
w: |||* * der|Lie- be Lied in|Wun- der- me- lo-|dei'n, es|
 A2 B2 d2 c2 | B3 G G2 B2 | B2 c2 e2 d2 | d3 c c2 c2 | e3 A A2 A2 | d3 A A2 A2 | ^c3 A A2 ce | %60
w: sang ein Herz *|||||||
 d4 x3/2 d/ d>d | d3 d d>d e>B | d4- d x B2 | B2 d2 e2 d2 | d4- d x d2 | (d4 c2) A2 | B6 G2 | %67
w: ||||* * im|Wald, _ im|Wald, *|
 G3 G G2 G2 | G4 x3/2 |] %69
w: ||
V:3
!f! G,<B, C/ | D2- D>D D>D E>B, | D4- D z |!p! F,2 | F,>F, F,>F, E,>E, F,>G, | F,4 D, z | %6
w: ||||||
!<(! D,2!<)! | ^C,2- C,>!>(!F,!>)! F,2 F,2 | ^E,2 F,2 ^G,2 E,2 | (F,8 | ^E,4) E,2 B,2 | %11
w: |||||
!<(! ^A,2-!<)! A,>!>(!F,!>)! F,2!p! F,2 |!>(! B,2 B,2!>)! =A,2 A,2 | (=C6 A,2) | %14
w: |||
 F,4 z3/2!f! G,/ B,>C | D2- D>D D>D E>B, | D4- D z G,2 |!<(! G,2 A,2 [G,C]2!<)! [F,C]2 | %18
w: ||||
!ff! [G,B,]4- [G,B,] !fermata!z!pp! B,2 | (B,4 A,2) D,2 | !fermata!G,4 !fermata!z2!p! G,2 | %21
w: |||
 G,3 G, G,2 F,2 | E,3 E, E,2 E,2 | (E,4 F,4) | G,6 z2 | G,4 F,3 F, |!<(! E,2 E,2 E,2!<)! E,2 | %27
w: ||||||
 G,6!>(! D,2 | D,4-!>)! D, z!p! G,2 | G,4- G,2 F,2 |!<(! E,3 E, E,2!<)! E,2 | F,3 D, D,2 F,2 | %32
w: |||||
!<(! G,6!<)! G,2 | F,4 E,4 | G,6!>(! F,2 | F,6!>)! | z3/2!f! D/ | D3 D D2 D2 | %38
w: ||||||
 !>!B,7/2 B,/ B,2 D2 | D2 D2 D2 D2 | !>!C4 C2 D2 | D3 D D2 D2 | !>!C3 C C2 D2 | %43
w: |||||
!<(! D2 D2 D2 D2!<)! |!ff! (D6 C2) | A,4- A, z/!f! G,/ B,>C | D7/2 D/ D>D E>B, | D4- D z!p! F,2 | %48
w: |||||
 F,>F, F,>F, E,>E, F,>G, |!<(! F,4!<)! B, z!f! =C2 | B,3 G, G,2 G,2 | F,2 G,2 A,2"^der" F,2 | %52
w: ||||
 G,6 G,2 | F,6 F,2 | !>!D3 B, B,2 G,2 |!<(! G,2!<)! G,2 A,2 B,2 | [G,B,]3 [G,C] [G,C]2 [G,C]2 | %57
w: dei'n, es|sang *||||
 !>!A,3 A, A,2 A,2 | !>!A,3 A, A,2 A,2 | !>!A,3 A, A,2 A,[A,^C] | =C4 !fermata!z3/2!f! D/ D>D | %61
w: ||||
 D3 D D>D E>B, | D4- D z G,2 |!<(! G,2 A,2 [G,C]2!<)! [F,C]2 | [G,B,]4- [G,B,] !fermata!z!pp! B,2 | %65
w: ||||
 (B,4 A,2) D,2 | G,6!pp! D,2 | D,3 D, D,2 D,2 | !fermata!D,4 !fermata!z3/2 |] %69
w: ||||
V:4
 z/ z2 | z8 | z4 z2 | B,,2 | B,,>B,, B,,>B,, B,,>B,, B,,>B,, | B,,4 B,, x | B,,2 | %7
w: |||||||
 F,,2- F,,>F, F,2 z2 | z4 z2 ^E,2 | F,2- F,>^C, C,2 C,2 | B,,2 ^A,,2 ^G,,2 ^C,2 | %11
w: |im|Mor- * gen- weh'n die|Wip- fel stumm sich|
 (F,,2 F,2) F,2 F,2 | B,2 B,2 A,2 A,2 | D2- D>D, D,4- | !fermata!D,4 z4 | z8 | z4 z2 G,2 | %17
w: nei- * gen, die|Wip- fel stumm im|Mor- * gen- weh'n,|_|||
 E,2 D,2 C,2 A,,2 | [G,,D,]4- [G,,D,] x B,2 | (B,4 A,2) D,2 | G,4 x2 G,2 | G,3 G, G,2 F,2 | %22
w: |||||
 E,3 E, C,2 C,2 | (E,4 F,2 B,,2) | E,6 x2 | G,4 F,3 F, | E,2 E,2 C,2 C,2 | G,,6 B,,2 | %28
w: ||||||
 D,4- D, x G,2 | G,4- G,2 F,2 | E,3 E, A,,2 A,,2 | A,,3 A,, A,,2 A,,2 | A,,6 A,,2 | A,,4 A,,4 | %34
w: ||||||
 D,6 D,2 | D,6 | x3/2 D/ | D3 D D2 D2 | ^G,7/2 G,/ G,2 D2 | D2 D2 D2 D2 | A,4 A,2 D2 | D3 D D2 D2 | %42
w: ||||||||
 A,3 G, F,2 D2 | D2 D2 D2 D2 | (C6 A,2) | F,4- !fermata!F, x/ z/ z2 | z8 | z4 z2 B,,2 | %48
w: ||||||
 B,,>B,, B,,>B,, B,,>B,, B,,>B,, | B,,4 B, x A,2 | G,3 G, G,2 z2 | z4 z2 F,2 | !>!G,3 D, D,2 D,2 | %53
w: ||||Lie- be Lied, es|
 C,2 B,,2 A,,2 D,2 | G,,3 G, G,2 G,2 | =F,2 E,2 D,2 G,2 | C,3 C, C,2 C,2 | %57
w: sang ein Herz *||||
 [^C,G,]3 [C,G,] [C,G,]2 [C,G,]2 | [D,G,]3 [D,G,] [D,G,]2 [D,G,]2 | %59
w: ||
 [E,G,]3 [E,G,] [E,G,]2 [E,G,]G, | !fermata!F,4 x3/2 D/ D>D | D3 D D>D E>B, | D4- D x G,2 | %63
w: ||||
 E,2 D,2 C,2 A,,2 | [G,,D,]4- [G,,D,] x B,2 | (B,4 A,2) D,2 | G,6 G,,2 | G,,3 G,, G,,2 G,,2 | %68
w: |||||
 G,,4 x3/2 |] %69
w: |

